X: 15
T: No_23_Winter_Dance_Song_(a).krn
N: Derived from No_23_Winter_Dance_Song_(a).krn
%%abc-version 2.0
%%abcx-abcm2ps-target-version 5.9.1 (29 Sep 2008)
%%abc-creator hum2abc beta
%%abcx-conversion-date 2019/03/15 08:25:35
%%humdrum-veritas 1397548372
%%humdrum-veritas-data 2835701023
%%linebreak <none>
%%barnumbers 0
L: 1/8
M: 3/4
K: C clef=treble
[K:clef=treble][M:3/4]G,G,G,2G,2 ]|:  
[M:2/4]G2G2 | 
G3/E/ (3DCC | 
D2D2 | 
D3/C/ (3CA,A, | 
D/D3/ D/C/ z | 
[M:3/4]D/D3/ D zz2 :|]  
[M:2/4]D/D3/ EG | 
D/C3/ CA,/A,/ | 
C/A,/A,/G,/ G,G,/G,/ | 
A,A,A,2 | 
D/D3/ EG | 
D/C3/ CA,/A,/ | 
D2D2 | 
[M:3/4]DC CA, G,A, | 
G,2G,2G, z | 
[M:2/4]A,3/G,/ F,F, | 
[M:3/4]F,2F,2F, z | 
[M:2/4]D3/D/ D3/A,/ | 
D2D2 | 
[M:3/4]DC C3/A,/ G,3/A,/ | 
G,2G,3/G,/G,2 | 
[M:2/4]G,2G,2 | 
G,2G, z |]  



